X: 302
T: Lakodalmi Tanc
O: Hungary
F: http://www.youtube.com/watch?v=Cchz4DDz1rg
L:1/8
M:6/8
Q:1/4=96
K:Am
|:"Am"A2 B c B2 | A2 B A E2| A2 B c B2 | A2 B A E2  :|
L:1/8
M:3/8
|:"Dm"A3        | "G"G3    | "Dm"F2 G  | A3         |\
  "G"G3         | "Dm"F2 E | D3        :|
L:1/8
M:2/4
|:"Dm"D2 A2     | A2 G2    | A2 F2     | "Am"E2 D2  |\
  "Dm"D2 A2     | A2 G2    | A2 F2     | "Am"E2 D2  |
  "Dm"DE F2     | GFEF     | "Am"E3 F  | "Em"E2 B,2 |\
  "Dm"DE F2     | GFEF     | D4-       |D4          :|



